report_00007_2020-12-11T15:55:29.892Z/first-contentful-paint/comparison/line/8_vs_9.svg

<svg width="640" height="500" xmlns="http://www.w3.org/2000/svg" xmlns:xlink="http://www.w3.org/1999/xlink"><path fill="#fff" d="M0 0h640v500H0z"/><defs><path id="d" stroke-width=".222" stroke="currentColor" d="M-1-1h2v2h-2z"/><path id="b" stroke-width=".222" stroke="currentColor" d="M0-1.33l-1.33 2h2.66z"/><path id="f" stroke-width=".222" stroke="currentColor" d="M0 1.33L1.265.411.782-1.067l-1.564-.009-.483 1.487z"/><use xlink:href="#b" id="c" stroke="currentColor" transform="rotate(180)"/><use xlink:href="#d" id="e" stroke="currentColor" transform="rotate(45)"/><circle id="a" stroke-width=".222" stroke="currentColor" cx="0" cy="0" r="1"/></defs><g fill="none" color="#000" stroke="currentColor"><path stroke="#000" d="M62.2 383.6h9m543.8 0h-9"/><text transform="translate(53.9 387.5)" stroke="none" fill="#000" font-family="Arial" font-size="12" text-anchor="end"><tspan>1700</tspan></text></g><g fill="none" color="#000" stroke="currentColor"><path stroke="#000" d="M62.2 332.6h9m543.8 0h-9"/><text transform="translate(53.9 336.5)" stroke="none" fill="#000" font-family="Arial" font-size="12" text-anchor="end"><tspan>1750</tspan></text></g><g fill="none" color="#000" stroke="currentColor"><path stroke="#000" d="M62.2 281.6h9m543.8 0h-9"/><text transform="translate(53.9 285.5)" stroke="none" fill="#000" font-family="Arial" font-size="12" text-anchor="end"><tspan>1800</tspan></text></g><g fill="none" color="#000" stroke="currentColor"><path stroke="#000" d="M62.2 230.6h9m543.8 0h-9"/><text transform="translate(53.9 234.5)" stroke="none" fill="#000" font-family="Arial" font-size="12" text-anchor="end"><tspan>1850</tspan></text></g><g fill="none" color="#000" stroke="currentColor"><path stroke="#000" d="M62.2 179.6h9m543.8 0h-9"/><text transform="translate(53.9 183.5)" stroke="none" fill="#000" font-family="Arial" font-size="12" text-anchor="end"><tspan>1900</tspan></text></g><g fill="none" color="#000" stroke="currentColor"><path stroke="#000" d="M62.2 128.6h9m543.8 0h-9"/><text transform="translate(53.9 132.5)" stroke="none" fill="#000" font-family="Arial" font-size="12" text-anchor="end"><tspan>1950</tspan></text></g><g fill="none" color="#000" stroke="currentColor"><path stroke="#000" d="M62.2 77.6h9m543.8 0h-9"/><text transform="translate(53.9 81.5)" stroke="none" fill="#000" font-family="Arial" font-size="12" text-anchor="end"><tspan>2000</tspan></text></g><g fill="none" color="#000" stroke="currentColor"><path stroke="#000" d="M62.2 26.7h9m543.8 0h-9"/><text transform="translate(53.9 30.6)" stroke="none" fill="#000" font-family="Arial" font-size="12" text-anchor="end"><tspan>2050</tspan></text></g><g fill="none" color="#000" stroke="currentColor"><path stroke="#000" d="M62.2 428v-9m0-400.9v9"/><text transform="translate(62.2 449.9)" stroke="none" fill="#000" font-family="Arial" font-size="12" text-anchor="middle"><tspan>0</tspan></text></g><g fill="none" color="#000" stroke="currentColor"><path stroke="#000" d="M118 428v-9m0-400.9v9"/><text transform="translate(118 449.9)" stroke="none" fill="#000" font-family="Arial" font-size="12" text-anchor="middle"><tspan>10</tspan></text></g><g fill="none" color="#000" stroke="currentColor"><path stroke="#000" d="M173.9 428v-9m0-400.9v9"/><text transform="translate(173.9 449.9)" stroke="none" fill="#000" font-family="Arial" font-size="12" text-anchor="middle"><tspan>20</tspan></text></g><g fill="none" color="#000" stroke="currentColor"><path stroke="#000" d="M229.7 428v-9m0-400.9v9"/><text transform="translate(229.7 449.9)" stroke="none" fill="#000" font-family="Arial" font-size="12" text-anchor="middle"><tspan>30</tspan></text></g><g fill="none" color="#000" stroke="currentColor"><path stroke="#000" d="M285.6 428v-9m0-400.9v9"/><text transform="translate(285.6 449.9)" stroke="none" fill="#000" font-family="Arial" font-size="12" text-anchor="middle"><tspan>40</tspan></text></g><g fill="none" color="#000" stroke="currentColor"><path stroke="#000" d="M341.4 428v-9m0-400.9v9"/><text transform="translate(341.4 449.9)" stroke="none" fill="#000" font-family="Arial" font-size="12" text-anchor="middle"><tspan>50</tspan></text></g><g fill="none" color="#000" stroke="currentColor"><path stroke="#000" d="M397.2 428v-9m0-400.9v9"/><text transform="translate(397.2 449.9)" stroke="none" fill="#000" font-family="Arial" font-size="12" text-anchor="middle"><tspan>60</tspan></text></g><g fill="none" color="#000" stroke="currentColor"><path stroke="#000" d="M453.1 428v-9m0-400.9v9"/><text transform="translate(453.1 449.9)" stroke="none" fill="#000" font-family="Arial" font-size="12" text-anchor="middle"><tspan>70</tspan></text></g><g fill="none" color="#000" stroke="currentColor"><path stroke="#000" d="M508.9 428v-9m0-400.9v9"/><text transform="translate(508.9 449.9)" stroke="none" fill="#000" font-family="Arial" font-size="12" text-anchor="middle"><tspan>80</tspan></text></g><g fill="none" color="#000" stroke="currentColor"><path stroke="#000" d="M564.7 428v-9m0-400.9v9"/><text transform="translate(564.7 449.9)" stroke="none" fill="#000" font-family="Arial" font-size="12" text-anchor="middle"><tspan>90</tspan></text></g><path stroke="#000" d="M62.2 18.1V428H615V18.1H62.2z" fill="none" color="#000"/><text transform="translate(279.8 467.9)" stroke="none" fill="#000" font-family="Arial" font-size="12" text-anchor="end" color="#000"><tspan>pages+cached+noexternal+noimg</tspan></text><path stroke="#9400D3" d="M288.1 464h42.2M62.2 263.1l5.6 1.2 5.6-2 5.6.5 5.5-230 5.6-2.5 5.6-1.1 5.6 236.3L106.9 31l5.6.1 5.5-.4 5.6 232.1 5.6-158.3 5.6-73.6 5.6 231.6L146 28.3l5.5 1.6 5.6 76.7 5.6-76.9 5.6-.4 5.6 234 5.6-235.2 5.5 235.7 5.6-233.7 5.6 235.6 5.6-235.8 5.6 76 5.6-72.6 5.5-4.1 5.6 2.3 5.6 1 5.6-6.5 5.6 240.2 5.6-161.7 5.6-68.5 5.5 226.5 5.6-236 5.6 82 5.6-78.2L280 29l5.6 234.1 5.5-2.5 5.6 1.9L302.3 32l5.6 77.4 5.6 154.1 5.6-155.3 5.5-77.2h5.6l5.6 230.7 5.6-227.4 5.6 229.8 5.6-158.4 5.5-77.8 5.6 238.7 5.6-236.2 5.6 2.1 5.6-2.8 5.6 234.4 5.5-156.6 5.6-76.4 5.6-2.8 5.6 236.6 5.6-1.2 5.6-235 5.5 235.9 5.6-154 5.6-77.6 5.6 229.9L447.5 28l5.6 79.4 5.6-74.9 5.5 233 5.6-2.3 5.6-231.6 5.6 235 5.6-231.7 5.6-5.4 5.5 76.1 5.6 159.5 5.6-159.4 5.6-75.9 5.6 233.8 5.6-155.3 5.5 155.8 5.6 2.3 5.6-239.2 5.6 3.4 5.6 231.3 5.6 1.8 5.5-231.4 5.6-1.8 5.6 231.8 5.6-234 5.6 1.2 5.6-.4 5.5 235.1 5.6-234.4 5.6 81.5 5.6-81" fill="none" color="#000"/><text transform="translate(279.8 485.9)" stroke="none" fill="#000" font-family="Arial" font-size="12" text-anchor="end" color="#000"><tspan>pages+cached+noexternal+nocss</tspan></text><path stroke="#009E73" d="M288.1 482h42.2M62.2 416.1l5.6.8 5.6-1 5.6 2.3 5.5-4.1 5.6.8 5.6 2.1 5.6 2.3 5.6-3.2 5.6.3 5.5-1.3 5.6.6 5.6-.9 5.6 1.4 5.6-.8 5.6.5 5.5.2 5.6 1.1 5.6-1.3 5.6-3.9 5.6 2.2 5.6 3.1 5.5-3.1 5.6.6 5.6 3.1 5.6.7 5.6-3.9 5.6-3.8 5.5 5.8 5.6-1.8 5.6-1.2 5.6 1.6 5.6 1.1 5.6-.5 5.6-.8 5.5-3.7 5.6 4.5 5.6.2 5.6-.9 5.6 4 5.6-.3 5.5-2.6 5.6 3.8 5.6-4.1 5.6.8 5.6 1.6 5.6-.5 5.5-.3 5.6-5.8 5.6 6 5.6-.3 5.6-1.3 5.6-.2 5.5-.5 5.6-1.6 5.6.5 5.6 5.1 5.6-3.7 5.6 1.5 5.5.1 5.6 1.1 5.6-1.2 5.6.5 5.6-2.5 5.6.3 5.5.6 5.6-2.6 5.6 1.8 5.6-.6 5.6.4 5.6 4.6 5.6-5 5.5 1.1 5.6-.6 5.6-.5 5.6 1.4 5.6-2.3 5.6.2 5.5 1.5 5.6-.4 5.6 2.8 5.6-3.4 5.6 1.3 5.6-.4 5.5.5 5.6 3 5.6-3.5 5.6 1.2 5.6-2.8 5.6 4.5 5.5-1.6 5.6-1.1 5.6.1 5.6 2.4 5.6-1.5h5.6l5.5-1.2 5.6.1 5.6-.1 5.6-.8" fill="none" color="#000"/><text transform="translate(579.3 467.9)" stroke="none" fill="#000" font-family="Arial" font-size="12" text-anchor="end" color="#000"><tspan>score p10=2336</tspan></text><path stroke="#56B4E9" d="M587.6 464h42.2" fill="none" color="#000"/><g><text transform="translate(579.3 485.9)" stroke="none" fill="#000" font-family="Arial" font-size="12" text-anchor="end" color="#000"><tspan>score median=4000</tspan></text><path stroke="#E69F00" d="M587.6 482h42.2" fill="none" color="#000"/></g><g fill="none" color="#000" stroke="currentColor"><path stroke="#000" d="M62.2 18.1V428H615V18.1H62.2z"/></g></svg>

<?xml version="1.0" encoding="utf-8"  standalone="no"?>
<svg 
 width="640" height="500"
 viewBox="0 0 640 500"
 xmlns="http://www.w3.org/2000/svg"
 xmlns:xlink="http://www.w3.org/1999/xlink"
>

<title>Gnuplot</title>
<desc>Produced by GNUPLOT 5.4 patchlevel 0 </desc>

<g id="gnuplot_canvas">

<rect x="0" y="0" width="640" height="500" fill="#ffffff"/>
<defs>

	<circle id='gpDot' r='0.5' stroke-width='0.5' stroke='currentColor'/>
	<path id='gpPt0' stroke-width='0.222' stroke='currentColor' d='M-1,0 h2 M0,-1 v2'/>
	<path id='gpPt1' stroke-width='0.222' stroke='currentColor' d='M-1,-1 L1,1 M1,-1 L-1,1'/>
	<path id='gpPt2' stroke-width='0.222' stroke='currentColor' d='M-1,0 L1,0 M0,-1 L0,1 M-1,-1 L1,1 M-1,1 L1,-1'/>
	<rect id='gpPt3' stroke-width='0.222' stroke='currentColor' x='-1' y='-1' width='2' height='2'/>
	<rect id='gpPt4' stroke-width='0.222' stroke='currentColor' fill='currentColor' x='-1' y='-1' width='2' height='2'/>
	<circle id='gpPt5' stroke-width='0.222' stroke='currentColor' cx='0' cy='0' r='1'/>
	<use xlink:href='#gpPt5' id='gpPt6' fill='currentColor' stroke='none'/>
	<path id='gpPt7' stroke-width='0.222' stroke='currentColor' d='M0,-1.33 L-1.33,0.67 L1.33,0.67 z'/>
	<use xlink:href='#gpPt7' id='gpPt8' fill='currentColor' stroke='none'/>
	<use xlink:href='#gpPt7' id='gpPt9' stroke='currentColor' transform='rotate(180)'/>
	<use xlink:href='#gpPt9' id='gpPt10' fill='currentColor' stroke='none'/>
	<use xlink:href='#gpPt3' id='gpPt11' stroke='currentColor' transform='rotate(45)'/>
	<use xlink:href='#gpPt11' id='gpPt12' fill='currentColor' stroke='none'/>
	<path id='gpPt13' stroke-width='0.222' stroke='currentColor' d='M0,1.330 L1.265,0.411 L0.782,-1.067 L-0.782,-1.076 L-1.265,0.411 z'/>
	<use xlink:href='#gpPt13' id='gpPt14' fill='currentColor' stroke='none'/>
	<filter id='textbox' filterUnits='objectBoundingBox' x='0' y='0' height='1' width='1'>
	  <feFlood flood-color='#FFFFFF' flood-opacity='1' result='bgnd'/>
	  <feComposite in='SourceGraphic' in2='bgnd' operator='atop'/>
	</filter>
	<filter id='greybox' filterUnits='objectBoundingBox' x='0' y='0' height='1' width='1'>
	  <feFlood flood-color='lightgrey' flood-opacity='1' result='grey'/>
	  <feComposite in='SourceGraphic' in2='grey' operator='atop'/>
	</filter>
</defs>
<g fill="none" color="#FFFFFF" stroke="black" stroke-width="1.00" stroke-linecap="butt" stroke-linejoin="miter">
</g>
<g fill="none" color="black" stroke="currentColor" stroke-width="1.00" stroke-linecap="butt" stroke-linejoin="miter">
	<path stroke='black'  d='M62.2,383.6 L71.2,383.6 M615.0,383.6 L606.0,383.6  '/>	<g transform="translate(53.9,387.5)" stroke="none" fill="black" font-family="Arial" font-size="12.00"  text-anchor="end">
		<text><tspan font-family="Arial" > 1700</tspan></text>
	</g>
</g>
<g fill="none" color="black" stroke="currentColor" stroke-width="1.00" stroke-linecap="butt" stroke-linejoin="miter">
	<path stroke='black'  d='M62.2,332.6 L71.2,332.6 M615.0,332.6 L606.0,332.6  '/>	<g transform="translate(53.9,336.5)" stroke="none" fill="black" font-family="Arial" font-size="12.00"  text-anchor="end">
		<text><tspan font-family="Arial" > 1750</tspan></text>
	</g>
</g>
<g fill="none" color="black" stroke="currentColor" stroke-width="1.00" stroke-linecap="butt" stroke-linejoin="miter">
	<path stroke='black'  d='M62.2,281.6 L71.2,281.6 M615.0,281.6 L606.0,281.6  '/>	<g transform="translate(53.9,285.5)" stroke="none" fill="black" font-family="Arial" font-size="12.00"  text-anchor="end">
		<text><tspan font-family="Arial" > 1800</tspan></text>
	</g>
</g>
<g fill="none" color="black" stroke="currentColor" stroke-width="1.00" stroke-linecap="butt" stroke-linejoin="miter">
	<path stroke='black'  d='M62.2,230.6 L71.2,230.6 M615.0,230.6 L606.0,230.6  '/>	<g transform="translate(53.9,234.5)" stroke="none" fill="black" font-family="Arial" font-size="12.00"  text-anchor="end">
		<text><tspan font-family="Arial" > 1850</tspan></text>
	</g>
</g>
<g fill="none" color="black" stroke="currentColor" stroke-width="1.00" stroke-linecap="butt" stroke-linejoin="miter">
	<path stroke='black'  d='M62.2,179.6 L71.2,179.6 M615.0,179.6 L606.0,179.6  '/>	<g transform="translate(53.9,183.5)" stroke="none" fill="black" font-family="Arial" font-size="12.00"  text-anchor="end">
		<text><tspan font-family="Arial" > 1900</tspan></text>
	</g>
</g>
<g fill="none" color="black" stroke="currentColor" stroke-width="1.00" stroke-linecap="butt" stroke-linejoin="miter">
	<path stroke='black'  d='M62.2,128.6 L71.2,128.6 M615.0,128.6 L606.0,128.6  '/>	<g transform="translate(53.9,132.5)" stroke="none" fill="black" font-family="Arial" font-size="12.00"  text-anchor="end">
		<text><tspan font-family="Arial" > 1950</tspan></text>
	</g>
</g>
<g fill="none" color="black" stroke="currentColor" stroke-width="1.00" stroke-linecap="butt" stroke-linejoin="miter">
	<path stroke='black'  d='M62.2,77.6 L71.2,77.6 M615.0,77.6 L606.0,77.6  '/>	<g transform="translate(53.9,81.5)" stroke="none" fill="black" font-family="Arial" font-size="12.00"  text-anchor="end">
		<text><tspan font-family="Arial" > 2000</tspan></text>
	</g>
</g>
<g fill="none" color="black" stroke="currentColor" stroke-width="1.00" stroke-linecap="butt" stroke-linejoin="miter">
	<path stroke='black'  d='M62.2,26.7 L71.2,26.7 M615.0,26.7 L606.0,26.7  '/>	<g transform="translate(53.9,30.6)" stroke="none" fill="black" font-family="Arial" font-size="12.00"  text-anchor="end">
		<text><tspan font-family="Arial" > 2050</tspan></text>
	</g>
</g>
<g fill="none" color="black" stroke="currentColor" stroke-width="1.00" stroke-linecap="butt" stroke-linejoin="miter">
	<path stroke='black'  d='M62.2,428.0 L62.2,419.0 M62.2,18.1 L62.2,27.1  '/>	<g transform="translate(62.2,449.9)" stroke="none" fill="black" font-family="Arial" font-size="12.00"  text-anchor="middle">
		<text><tspan font-family="Arial" > 0</tspan></text>
	</g>
</g>
<g fill="none" color="black" stroke="currentColor" stroke-width="1.00" stroke-linecap="butt" stroke-linejoin="miter">
	<path stroke='black'  d='M118.0,428.0 L118.0,419.0 M118.0,18.1 L118.0,27.1  '/>	<g transform="translate(118.0,449.9)" stroke="none" fill="black" font-family="Arial" font-size="12.00"  text-anchor="middle">
		<text><tspan font-family="Arial" > 10</tspan></text>
	</g>
</g>
<g fill="none" color="black" stroke="currentColor" stroke-width="1.00" stroke-linecap="butt" stroke-linejoin="miter">
	<path stroke='black'  d='M173.9,428.0 L173.9,419.0 M173.9,18.1 L173.9,27.1  '/>	<g transform="translate(173.9,449.9)" stroke="none" fill="black" font-family="Arial" font-size="12.00"  text-anchor="middle">
		<text><tspan font-family="Arial" > 20</tspan></text>
	</g>
</g>
<g fill="none" color="black" stroke="currentColor" stroke-width="1.00" stroke-linecap="butt" stroke-linejoin="miter">
	<path stroke='black'  d='M229.7,428.0 L229.7,419.0 M229.7,18.1 L229.7,27.1  '/>	<g transform="translate(229.7,449.9)" stroke="none" fill="black" font-family="Arial" font-size="12.00"  text-anchor="middle">
		<text><tspan font-family="Arial" > 30</tspan></text>
	</g>
</g>
<g fill="none" color="black" stroke="currentColor" stroke-width="1.00" stroke-linecap="butt" stroke-linejoin="miter">
	<path stroke='black'  d='M285.6,428.0 L285.6,419.0 M285.6,18.1 L285.6,27.1  '/>	<g transform="translate(285.6,449.9)" stroke="none" fill="black" font-family="Arial" font-size="12.00"  text-anchor="middle">
		<text><tspan font-family="Arial" > 40</tspan></text>
	</g>
</g>
<g fill="none" color="black" stroke="currentColor" stroke-width="1.00" stroke-linecap="butt" stroke-linejoin="miter">
	<path stroke='black'  d='M341.4,428.0 L341.4,419.0 M341.4,18.1 L341.4,27.1  '/>	<g transform="translate(341.4,449.9)" stroke="none" fill="black" font-family="Arial" font-size="12.00"  text-anchor="middle">
		<text><tspan font-family="Arial" > 50</tspan></text>
	</g>
</g>
<g fill="none" color="black" stroke="currentColor" stroke-width="1.00" stroke-linecap="butt" stroke-linejoin="miter">
	<path stroke='black'  d='M397.2,428.0 L397.2,419.0 M397.2,18.1 L397.2,27.1  '/>	<g transform="translate(397.2,449.9)" stroke="none" fill="black" font-family="Arial" font-size="12.00"  text-anchor="middle">
		<text><tspan font-family="Arial" > 60</tspan></text>
	</g>
</g>
<g fill="none" color="black" stroke="currentColor" stroke-width="1.00" stroke-linecap="butt" stroke-linejoin="miter">
	<path stroke='black'  d='M453.1,428.0 L453.1,419.0 M453.1,18.1 L453.1,27.1  '/>	<g transform="translate(453.1,449.9)" stroke="none" fill="black" font-family="Arial" font-size="12.00"  text-anchor="middle">
		<text><tspan font-family="Arial" > 70</tspan></text>
	</g>
</g>
<g fill="none" color="black" stroke="currentColor" stroke-width="1.00" stroke-linecap="butt" stroke-linejoin="miter">
	<path stroke='black'  d='M508.9,428.0 L508.9,419.0 M508.9,18.1 L508.9,27.1  '/>	<g transform="translate(508.9,449.9)" stroke="none" fill="black" font-family="Arial" font-size="12.00"  text-anchor="middle">
		<text><tspan font-family="Arial" > 80</tspan></text>
	</g>
</g>
<g fill="none" color="black" stroke="currentColor" stroke-width="1.00" stroke-linecap="butt" stroke-linejoin="miter">
	<path stroke='black'  d='M564.7,428.0 L564.7,419.0 M564.7,18.1 L564.7,27.1  '/>	<g transform="translate(564.7,449.9)" stroke="none" fill="black" font-family="Arial" font-size="12.00"  text-anchor="middle">
		<text><tspan font-family="Arial" > 90</tspan></text>
	</g>
</g>
<g fill="none" color="black" stroke="currentColor" stroke-width="1.00" stroke-linecap="butt" stroke-linejoin="miter">
</g>
<g fill="none" color="black" stroke="currentColor" stroke-width="1.00" stroke-linecap="butt" stroke-linejoin="miter">
	<path stroke='black'  d='M62.2,18.1 L62.2,428.0 L615.0,428.0 L615.0,18.1 L62.2,18.1 Z  '/></g>
<g fill="none" color="black" stroke="currentColor" stroke-width="1.00" stroke-linecap="butt" stroke-linejoin="miter">
</g>
	<g id="gnuplot_plot_1" ><title>pages+cached+noexternal+noimg</title>
<g fill="none" color="black" stroke="currentColor" stroke-width="1.00" stroke-linecap="butt" stroke-linejoin="miter">
	<g transform="translate(279.8,467.9)" stroke="none" fill="black" font-family="Arial" font-size="12.00"  text-anchor="end">
		<text><tspan font-family="Arial" >pages+cached+noexternal+noimg</tspan></text>
	</g>
</g>
<g fill="none" color="black" stroke="currentColor" stroke-width="1.00" stroke-linecap="butt" stroke-linejoin="miter">
	<path stroke='rgb(148,   0, 211)'  d='M288.1,464.0 L330.3,464.0 M62.2,263.1 L67.8,264.3 L73.4,262.3 L79.0,262.8 L84.5,32.8 L90.1,30.3
		L95.7,29.2 L101.3,265.5 L106.9,31.0 L112.5,31.1 L118.0,30.7 L123.6,262.8 L129.2,104.5 L134.8,30.9
		L140.4,262.5 L146.0,28.3 L151.5,29.9 L157.1,106.6 L162.7,29.7 L168.3,29.3 L173.9,263.3 L179.5,28.1
		L185.0,263.8 L190.6,30.1 L196.2,265.7 L201.8,29.9 L207.4,105.9 L213.0,33.3 L218.5,29.2 L224.1,31.5
		L229.7,32.5 L235.3,26.0 L240.9,266.2 L246.5,104.5 L252.1,36.0 L257.6,262.5 L263.2,26.5 L268.8,108.5
		L274.4,30.3 L280.0,29.0 L285.6,263.1 L291.1,260.6 L296.7,262.5 L302.3,32.0 L307.9,109.4 L313.5,263.5
		L319.1,108.2 L324.6,31.0 L330.2,31.0 L335.8,261.7 L341.4,34.3 L347.0,264.1 L352.6,105.7 L358.1,27.9
		L363.7,266.6 L369.3,30.4 L374.9,32.5 L380.5,29.7 L386.1,264.1 L391.6,107.5 L397.2,31.1 L402.8,28.3
		L408.4,264.9 L414.0,263.7 L419.6,28.7 L425.1,264.6 L430.7,110.6 L436.3,33.0 L441.9,262.9 L447.5,28.0
		L453.1,107.4 L458.7,32.5 L464.2,265.5 L469.8,263.2 L475.4,31.6 L481.0,266.6 L486.6,34.9 L492.2,29.5
		L497.7,105.6 L503.3,265.1 L508.9,105.7 L514.5,29.8 L520.1,263.6 L525.7,108.3 L531.2,264.1 L536.8,266.4
		L542.4,27.2 L548.0,30.6 L553.6,261.9 L559.2,263.7 L564.7,32.3 L570.3,30.5 L575.9,262.3 L581.5,28.3
		L587.1,29.5 L592.7,29.1 L598.2,264.2 L603.8,29.8 L609.4,111.3 L615.0,30.3  '/></g>
	</g>
	<g id="gnuplot_plot_2" ><title>pages+cached+noexternal+nocss</title>
<g fill="none" color="black" stroke="currentColor" stroke-width="1.00" stroke-linecap="butt" stroke-linejoin="miter">
	<g transform="translate(279.8,485.9)" stroke="none" fill="black" font-family="Arial" font-size="12.00"  text-anchor="end">
		<text><tspan font-family="Arial" >pages+cached+noexternal+nocss</tspan></text>
	</g>
</g>
<g fill="none" color="black" stroke="currentColor" stroke-width="1.00" stroke-linecap="butt" stroke-linejoin="miter">
	<path stroke='rgb(  0, 158, 115)'  d='M288.1,482.0 L330.3,482.0 M62.2,416.1 L67.8,416.9 L73.4,415.9 L79.0,418.2 L84.5,414.1 L90.1,414.9
		L95.7,417.0 L101.3,419.3 L106.9,416.1 L112.5,416.4 L118.0,415.1 L123.6,415.7 L129.2,414.8 L134.8,416.2
		L140.4,415.4 L146.0,415.9 L151.5,416.1 L157.1,417.2 L162.7,415.9 L168.3,412.0 L173.9,414.2 L179.5,417.3
		L185.0,414.2 L190.6,414.8 L196.2,417.9 L201.8,418.6 L207.4,414.7 L213.0,410.9 L218.5,416.7 L224.1,414.9
		L229.7,413.7 L235.3,415.3 L240.9,416.4 L246.5,415.9 L252.1,415.1 L257.6,411.4 L263.2,415.9 L268.8,416.1
		L274.4,415.2 L280.0,419.2 L285.6,418.9 L291.1,416.3 L296.7,420.1 L302.3,416.0 L307.9,416.8 L313.5,418.4
		L319.1,417.9 L324.6,417.6 L330.2,411.8 L335.8,417.8 L341.4,417.5 L347.0,416.2 L352.6,416.0 L358.1,415.5
		L363.7,413.9 L369.3,414.4 L374.9,419.5 L380.5,415.8 L386.1,417.3 L391.6,417.4 L397.2,418.5 L402.8,417.3
		L408.4,417.8 L414.0,415.3 L419.6,415.6 L425.1,416.2 L430.7,413.6 L436.3,415.4 L441.9,414.8 L447.5,415.2
		L453.1,419.8 L458.7,414.8 L464.2,415.9 L469.8,415.3 L475.4,414.8 L481.0,416.2 L486.6,413.9 L492.2,414.1
		L497.7,415.6 L503.3,415.2 L508.9,418.0 L514.5,414.6 L520.1,415.9 L525.7,415.5 L531.2,416.0 L536.8,419.0
		L542.4,415.5 L548.0,416.7 L553.6,413.9 L559.2,418.4 L564.7,416.8 L570.3,415.7 L575.9,415.8 L581.5,418.2
		L587.1,416.7 L592.7,416.7 L598.2,415.5 L603.8,415.6 L609.4,415.5 L615.0,414.7  '/></g>
	</g>
	<g id="gnuplot_plot_3" ><title>score p10=2336</title>
<g fill="none" color="black" stroke="currentColor" stroke-width="1.00" stroke-linecap="butt" stroke-linejoin="miter">
	<g transform="translate(579.3,467.9)" stroke="none" fill="black" font-family="Arial" font-size="12.00"  text-anchor="end">
		<text><tspan font-family="Arial" >score p10=2336</tspan></text>
	</g>
</g>
<g fill="none" color="black" stroke="currentColor" stroke-width="1.00" stroke-linecap="butt" stroke-linejoin="miter">
	<path stroke='rgb( 86, 180, 233)'  d='M587.6,464.0 L629.8,464.0  '/></g>
	</g>
	<g id="gnuplot_plot_4" ><title>score median=4000</title>
<g fill="none" color="black" stroke="currentColor" stroke-width="1.00" stroke-linecap="butt" stroke-linejoin="miter">
	<g transform="translate(579.3,485.9)" stroke="none" fill="black" font-family="Arial" font-size="12.00"  text-anchor="end">
		<text><tspan font-family="Arial" >score median=4000</tspan></text>
	</g>
</g>
<g fill="none" color="black" stroke="currentColor" stroke-width="1.00" stroke-linecap="butt" stroke-linejoin="miter">
	<path stroke='rgb(230, 159,   0)'  d='M587.6,482.0 L629.8,482.0  '/></g>
	</g>
<g fill="none" color="#FFFFFF" stroke="rgb(230, 159,   0)" stroke-width="2.00" stroke-linecap="butt" stroke-linejoin="miter">
</g>
<g fill="none" color="black" stroke="currentColor" stroke-width="2.00" stroke-linecap="butt" stroke-linejoin="miter">
</g>
<g fill="none" color="black" stroke="black" stroke-width="1.00" stroke-linecap="butt" stroke-linejoin="miter">
</g>
<g fill="none" color="black" stroke="currentColor" stroke-width="1.00" stroke-linecap="butt" stroke-linejoin="miter">
	<path stroke='black'  d='M62.2,18.1 L62.2,428.0 L615.0,428.0 L615.0,18.1 L62.2,18.1 Z  '/></g>
<g fill="none" color="black" stroke="currentColor" stroke-width="1.00" stroke-linecap="butt" stroke-linejoin="miter">
</g>
</g>
</svg>
